app/images/title--unite.svg

<svg fill="none" height="240" viewBox="0 0 998 240" width="998" xmlns="http://www.w3.org/2000/svg"><g fill="#000"><path d="m205.01 143.298c0 34.893-8.853 59.787-26.56 74.681-17.707 14.681-42.987 22.021-75.84 22.021-36.9067 0-63.2533-8.511-79.04-25.532-15.57334-17.021-23.360009-42.872-23.360009-77.553v-129.57457c0-2.34043.533333-4.14894 1.599999-5.42554 1.06667-1.276594 2.56-1.91489 4.48-1.91489h60.80001c3.84 0 5.76 2.23405 5.76 6.70214v137.87186c0 15.745 2.9867 27.128 8.96 34.149 6.1867 7.022 14.9333 10.532 26.24 10.532 11.093 0 20.053-3.51 26.88-10.532 6.827-7.021 10.24-18.723 10.24-35.106v-136.27657c0-4.89362 2.027-7.34043 6.08-7.34043h48c3.84 0 5.76 2.23405 5.76 6.70214z"/><path d="m441.023 0c3.2 0 4.8 1.80851 4.8 5.42554v225.63846c0 1.702-.747 3.085-2.24 4.149-1.28 1.064-2.987 1.596-5.12 1.596h-43.841c-1.92 0-3.519-.32-4.799-.958-1.067-.638-2.347-1.915-3.84-3.83l-88-119.042c-.854-1.064-1.6-1.49-2.241-1.277-.639.213-.959.851-.959 1.915v116.17c.213 2.553-.321 4.362-1.601 5.426-1.066 1.064-3.093 1.596-6.079 1.596h-43.52c-5.334 0-8.001-2.128-8.001-6.383v-223.08557c0-4.89362 2.347-7.34043 7.04-7.34043h52.161c2.773 0 4.8.425533 6.08 1.2766 1.493.6383 3.093 2.12766 4.8 4.46808l76.8 106.59532c1.28 1.915 2.453 2.873 3.52 2.873 1.066 0 1.6-1.383 1.6-4.149v-104.36186c0-4.46809 2.346-6.70214 7.039-6.70214z"/><path d="m545.9 0c3.84 0 5.76 2.23405 5.76 6.70214v220.85086c0 3.404-.853 5.851-2.56 7.341-1.707 1.276-4.373 1.915-8 1.915h-53.44c-3.2 0-5.44-.639-6.72-1.915-1.28-1.277-1.92-3.298-1.92-6.064v-221.48957c0-2.34043.533-4.14894 1.6-5.42554 1.067-1.276594 2.56-1.91489 4.48-1.91489z"/><path d="m577.277 7.34043c0-2.12766.64-3.82979 1.92-5.10638 1.494-1.489366 3.52-2.23405 6.08-2.23405h191.36c2.56 0 4.481.744684 5.76 2.23405 1.494 1.27659 2.24 2.97872 2.24 5.10638v37.97867c0 4.0426-2.346 6.0639-7.039 6.0639h-56.641c-2.56 0-3.84 1.0638-3.84 3.1915v175.2125c0 2.341-.533 4.149-1.6 5.426-1.066 1.064-2.56 1.596-4.479 1.596h-60.801c-3.84 0-5.76-2.128-5.76-6.383v-174.5749c0-2.9788-1.173-4.4681-3.52-4.4681h-56.32c-4.906 0-7.36-2.0213-7.36-6.0639z"/><path d="m810.27 7.34043c0-4.89362 2.027-7.34043 6.08-7.34043h172.8c3.84 0 5.76 2.23405 5.76 6.70214l-.32 37.02126c0 5.7447-2.773 8.617-8.32 8.617h-96c-4.907 0-7.36 2.0213-7.36 6.0639v27.1276c0 2.1277.533 3.8298 1.6 5.1064 1.067 1.0638 2.453 1.5957 4.16 1.5957h57.6c4.48 0 6.72 2.1277 6.72 6.383v39.574c0 3.618-1.92 5.426-5.76 5.426h-59.2c-1.493 0-2.773.426-3.84 1.277-.853.851-1.28 1.915-1.28 3.191v31.915c0 1.702.213 2.872.64 3.511.64.638 1.707.957 3.2.957h104c4.693 0 7.04 2.021 7.04 6.064v39.255c0 2.128-.64 3.83-1.92 5.107-1.28 1.276-3.2 1.915-5.76 1.915h-171.2c-3.2 0-5.44-.639-6.72-1.915-1.28-1.277-1.92-3.298-1.92-6.064z"/></g></svg>

<svg width="998" height="240" viewBox="0 0 998 240" fill="none" xmlns="http://www.w3.org/2000/svg">
<path d="M205.01 143.298C205.01 178.191 196.157 203.085 178.45 217.979C160.743 232.66 135.463 240 102.61 240C65.7033 240 39.3567 231.489 23.57 214.468C7.99666 197.447 0.209991 171.596 0.209991 136.915V7.34043C0.209991 5 0.743324 3.19149 1.80999 1.91489C2.87666 0.638296 4.36999 0 6.28999 0H67.09C70.93 0 72.85 2.23405 72.85 6.70214V144.574C72.85 160.319 75.8367 171.702 81.81 178.723C87.9967 185.745 96.7433 189.255 108.05 189.255C119.143 189.255 128.103 185.745 134.93 178.723C141.757 171.702 145.17 160 145.17 143.617V7.34043C145.17 2.44681 147.197 0 151.25 0H199.25C203.09 0 205.01 2.23405 205.01 6.70214V143.298Z" fill="black"/>
<path d="M441.023 0C444.223 0 445.823 1.80851 445.823 5.42554V231.064C445.823 232.766 445.076 234.149 443.583 235.213C442.303 236.277 440.596 236.809 438.463 236.809H394.622C392.702 236.809 391.103 236.489 389.823 235.851C388.756 235.213 387.476 233.936 385.983 232.021L297.983 112.979C297.129 111.915 296.383 111.489 295.742 111.702C295.103 111.915 294.783 112.553 294.783 113.617V229.787C294.996 232.34 294.462 234.149 293.182 235.213C292.116 236.277 290.089 236.809 287.103 236.809H243.583C238.249 236.809 235.582 234.681 235.582 230.426V7.34043C235.582 2.44681 237.929 0 242.622 0H294.783C297.556 0 299.583 0.425533 300.863 1.2766C302.356 1.9149 303.956 3.40426 305.663 5.74468L382.463 112.34C383.743 114.255 384.916 115.213 385.983 115.213C387.049 115.213 387.583 113.83 387.583 111.064V6.70214C387.583 2.23405 389.929 0 394.622 0H441.023Z" fill="black"/>
<path d="M545.9 0C549.74 0 551.66 2.23405 551.66 6.70214V227.553C551.66 230.957 550.807 233.404 549.1 234.894C547.393 236.17 544.727 236.809 541.1 236.809H487.66C484.46 236.809 482.22 236.17 480.94 234.894C479.66 233.617 479.02 231.596 479.02 228.83V7.34043C479.02 5 479.553 3.19149 480.62 1.91489C481.687 0.638296 483.18 0 485.1 0H545.9Z" fill="black"/>
<path d="M577.277 7.34043C577.277 5.21277 577.917 3.51064 579.197 2.23405C580.691 0.744684 582.717 0 585.277 0H776.637C779.197 0 781.118 0.744684 782.397 2.23405C783.891 3.51064 784.637 5.21277 784.637 7.34043V45.3191C784.637 49.3617 782.291 51.383 777.598 51.383H720.957C718.397 51.383 717.117 52.4468 717.117 54.5745V229.787C717.117 232.128 716.584 233.936 715.517 235.213C714.451 236.277 712.957 236.809 711.038 236.809H650.237C646.397 236.809 644.477 234.681 644.477 230.426V55.8511C644.477 52.8723 643.304 51.383 640.957 51.383H584.637C579.731 51.383 577.277 49.3617 577.277 45.3191V7.34043Z" fill="black"/>
<path d="M810.27 7.34043C810.27 2.44681 812.297 0 816.35 0H989.15C992.99 0 994.91 2.23405 994.91 6.70214L994.59 43.7234C994.59 49.4681 991.817 52.3404 986.27 52.3404H890.27C885.363 52.3404 882.91 54.3617 882.91 58.4043V85.5319C882.91 87.6596 883.443 89.3617 884.51 90.6383C885.577 91.7021 886.963 92.234 888.67 92.234H946.27C950.75 92.234 952.99 94.3617 952.99 98.617V138.191C952.99 141.809 951.07 143.617 947.23 143.617H888.03C886.537 143.617 885.257 144.043 884.19 144.894C883.337 145.745 882.91 146.809 882.91 148.085V180C882.91 181.702 883.123 182.872 883.55 183.511C884.19 184.149 885.257 184.468 886.75 184.468H990.75C995.443 184.468 997.79 186.489 997.79 190.532V229.787C997.79 231.915 997.15 233.617 995.87 234.894C994.59 236.17 992.67 236.809 990.11 236.809H818.91C815.71 236.809 813.47 236.17 812.19 234.894C810.91 233.617 810.27 231.596 810.27 228.83V7.34043Z" fill="black"/>
</svg>
